src/sources/forus-platform/resources/_platform-common/assets/img/features/icons/bng/icon-1.svg

<svg width="59" height="58" viewBox="0 0 59 58" fill="none" xmlns="http://www.w3.org/2000/svg">
    <rect x="0.5" width="58" height="58" rx="8" fill="#F7F9FC"/>
    <path fill-rule="evenodd" clip-rule="evenodd" d="M30.1606 19.2945C32.7494 19.2945 35.0931 20.3439 36.7897 22.0404C38.4862 23.737 39.5356 26.0807 39.5356 28.6695C39.5356 31.2582 38.4862 33.602 36.7897 35.2985C35.0931 36.9951 32.7493 38.0445 30.1606 38.0445C27.5719 38.0445 25.2281 36.9951 23.5316 35.2985C21.835 33.6019 20.7856 31.2582 20.7856 28.6695C20.7856 26.0807 21.835 23.737 23.5316 22.0404C25.2281 20.3438 27.5719 19.2945 30.1606 19.2945Z" fill="#092DAA"/>
    <path fill-rule="evenodd" clip-rule="evenodd" d="M30.1608 21.7292C32.0772 21.7292 33.8123 22.5061 35.0682 23.762C36.3241 25.0179 37.101 26.753 37.101 28.6694C37.101 30.5858 36.3241 32.3208 35.0682 33.5767C33.8123 34.8327 32.0772 35.6095 30.1608 35.6095C28.2445 35.6095 26.5094 34.8327 25.2535 33.5767C23.9975 32.3208 23.2207 30.5858 23.2207 28.6694C23.2207 26.753 23.9975 25.0179 25.2535 23.762C26.5094 22.5061 28.2445 21.7292 30.1608 21.7292Z" fill="#305DFC"/>
    <path d="M24.6348 28.087V26.8091H26.1586C26.4807 25.7498 27.0518 24.8981 27.8735 24.2545C28.694 23.6109 29.6264 23.2893 30.6723 23.2893C32.2247 23.2893 33.4555 23.8586 34.3641 24.9973L33.3245 26.3341C32.8938 25.8688 32.486 25.5417 32.1008 25.3539C31.7145 25.1659 31.2385 25.0716 30.6723 25.0716C30.1045 25.0716 29.5942 25.2227 29.1411 25.5242C28.6867 25.8264 28.347 26.255 28.1225 26.8091H31.6095V28.0868H27.8139C27.8043 28.2054 27.7995 28.3861 27.7995 28.6289C27.7995 28.8714 27.8139 29.1014 27.8436 29.3192H31.6095V30.5967H28.2395C28.7667 31.6267 29.5631 32.1416 30.6282 32.1416C31.1551 32.1416 31.607 32.0401 31.9828 31.8371C32.3596 31.6339 32.7578 31.3148 33.1775 30.879L34.2174 32.1561C33.3087 33.2954 32.1127 33.8647 30.6282 33.8647C29.6121 33.8647 28.7107 33.5697 27.9248 32.9806C27.1377 32.3918 26.5737 31.5971 26.2313 30.5967H24.6348V29.3192H25.9536C25.924 29.0828 25.9093 28.8448 25.9094 28.6066C25.9094 28.3691 25.9142 28.1957 25.9238 28.0868H24.6348V28.087Z" fill="white"/>
    <path d="M40.0752 42.5498H20.52L22.0356 44.0653L21.1009 45.0001L18.4571 42.3563L17.9897 41.8888L18.4571 41.4216L21.1009 38.7778L22.0356 39.7124L20.52 41.2279H40.0752V42.5498Z" fill="#305DFC"/>
    <path d="M18.9243 15.4502H38.4795L36.9639 13.9346L37.8985 13L40.5424 15.6438L41.0098 16.1112L40.5424 16.5785L37.8985 19.2223L36.9639 18.2877L38.4795 16.7721H18.9243V15.4502Z" fill="#305DFC"/>
</svg>

<svg width="59" height="58" fill="none" xmlns="http://www.w3.org/2000/svg"><rect x=".5" width="58" height="58" rx="8" fill="#F7F9FC"/><path fill-rule="evenodd" clip-rule="evenodd" d="M30.16 19.294a9.346 9.346 0 0 1 6.63 2.746 9.346 9.346 0 0 1 2.746 6.63 9.346 9.346 0 0 1-2.746 6.628 9.346 9.346 0 0 1-6.63 2.746 9.345 9.345 0 0 1-6.628-2.745 9.346 9.346 0 0 1-2.746-6.63 9.346 9.346 0 0 1 2.746-6.629 9.345 9.345 0 0 1 6.629-2.745Z" fill="#092DAA"/><path fill-rule="evenodd" clip-rule="evenodd" d="M30.16 21.73c1.917 0 3.652.776 4.908 2.032a6.919 6.919 0 0 1 2.033 4.907 6.918 6.918 0 0 1-2.033 4.908 6.918 6.918 0 0 1-4.907 2.032 6.918 6.918 0 0 1-4.908-2.032 6.918 6.918 0 0 1-2.032-4.908c0-1.916.776-3.651 2.032-4.907a6.919 6.919 0 0 1 4.908-2.033Z" fill="#305DFC"/><path d="M24.635 28.087v-1.278h1.524c.322-1.06.893-1.91 1.715-2.555a4.412 4.412 0 0 1 2.798-.965c1.553 0 2.784.57 3.692 1.708l-1.04 1.337c-.43-.465-.838-.792-1.223-.98-.386-.188-.863-.282-1.429-.282-.567 0-1.078.15-1.53.452-.455.302-.795.731-1.02 1.285h3.488v1.278h-3.796c-.01.118-.015.3-.015.542 0 .242.015.472.045.69h3.765v1.278h-3.37c.528 1.03 1.324 1.545 2.39 1.545.526 0 .978-.102 1.354-.305.377-.203.775-.522 1.195-.958l1.04 1.277c-.91 1.14-2.105 1.709-3.59 1.709-1.016 0-1.917-.295-2.703-.884-.787-.59-1.351-1.384-1.694-2.384h-1.596v-1.278h1.319a5.716 5.716 0 0 1-.045-.712c0-.238.005-.411.015-.52h-1.29Z" fill="#fff"/><path d="M40.075 42.55H20.52l1.516 1.515L21.1 45l-2.644-2.644-.467-.467.467-.467 2.644-2.644.935.934-1.516 1.516h19.555v1.322ZM18.924 15.45H38.48l-1.516-1.515.934-.935 2.644 2.644.468.467-.468.467-2.644 2.644-.934-.934 1.516-1.516H18.924V15.45Z" fill="#305DFC"/></svg>
